svg/power_factor.svg

<svg width="24" height="24" viewBox="0 0 24 24" xmlns="http://www.w3.org/2000/svg">
<path d="M16 4V2H18V4H20V6H18V8H16V6H14V4H16Z"/>
<path d="M10 4H4V6H10V4Z"/>
<path fill-rule="evenodd" clip-rule="evenodd" d="M10.7358 16.9609C11.5067 16.3099 11.8921 15.3698 11.8921 14.1406C11.8921 12.9583 11.5301 12.0703 10.8062 11.4766C10.0874 10.8776 9.03532 10.5781 7.6499 10.5781H4.00146V22H6.42334V17.9375H7.4624C8.87907 17.9375 9.97021 17.612 10.7358 16.9609ZM7.22021 15.9531H6.42334V12.5625H7.5249C8.18636 12.5625 8.67074 12.6979 8.97803 12.9688C9.29053 13.2396 9.44678 13.6589 9.44678 14.2266C9.44678 14.7891 9.26188 15.2188 8.89209 15.5156C8.5223 15.8073 7.96501 15.9531 7.22021 15.9531Z"/>
<path d="M13.9998 22H16.3826V17.4844H20.2576V15.5078H16.3826V12.5625H20.5466V10.5781H13.9998V22Z"/>
</svg>

<svg width="24" height="24" viewBox="0 0 24 24" xmlns="http://www.w3.org/2000/svg"><path d="M16 4V2h2v2h2v2h-2v2h-2V6h-2V4h2zM10 4H4v2h6V4z"/><path fill-rule="evenodd" clip-rule="evenodd" d="M10.736 16.96c.77-.65 1.156-1.59 1.156-2.82 0-1.182-.362-2.07-1.086-2.663-.719-.6-1.77-.899-3.156-.899H4V22h2.422v-4.063h1.04c1.416 0 2.507-.325 3.273-.976zM7.22 15.954h-.797v-3.39h1.102c.661 0 1.146.135 1.453.406.313.27.469.69.469 1.258 0 .562-.185.992-.555 1.289-.37.291-.927.437-1.672.437z"/><path d="M14 22h2.383v-4.516h3.875v-1.976h-3.875v-2.945h4.164v-1.985H14V22z"/></svg>
